X:1
T:Woodbury, 76.76 D
T:Woodbury, 76.76 D
T:Isaac Baker Woodbury (1819-1858)
T:Public Domain Courtesy of the Cyber Hymnal™
C:Isaac Baker Woodbury (1819-1858)
Z:Public Domain
Z:Courtesy of the Cyber Hymnal™
%%score 1 ( 2 3 )
L:1/8
Q:1/4=115
M:4/4
K:C
V:1 treble 
V:2 bass 
V:3 bass 
V:1
"^Spirited" [EG]2 | [Ec]3 [Ec] [GB]2 [FA]2 | [EG]2 [EG]4 [EG]2 | [Ec]3 [Ec] [FA]2 [Fc]2 | %4
 [EG]4 z2 [EG]2 | [Ec]3 [Ec] [GB]2 [FA]2 | [EG]2 [EG]4 [CG]2 | [FA]3 [Fd] [Ec]2 [DB]2 | %8
 [Ec]4 z2 [EG]2 | [Fd]3 [Fd] [Ec]2 [Gd]2 | [Ge]2 [Ec]4 [EG]2 | [Fd]3 [Fd] [Ec]2 [Gd]2 | %12
 [Ge]6 [EG]2 | [Ec]3 [Ec] [GB]2 [FA]2 | [EG]2 [EG]4 [CG]2 | [FA]3 [Fd] [Ec]2 [DB]2 | [Ec]6 |] %17
V:2
 [C,C]2 | [C,G,]3 [C,G,] [C,C]2 [C,C]2 | [C,C]2 [C,C]4 [C,C]2 | [C,G,]3 [C,G,] [C,C]2 [C,A,]2 | %4
 [C,C]4 z2 [C,C]2 | [C,G,]3 [C,G,] [C,C]2 [C,C]2 | [C,C]2 [C,C]4 [E,C]2 | [F,C]3 [F,A,] G,2 G,2 | %8
 [C,G,]4 z2 [G,C]2 | [G,B,]3 [G,B,] [G,D]2 [G,B,]2 | C2 C4 [G,C]2 | [G,B,]3 [G,B,] [G,C]2 [G,B,]2 | %12
 C6 [C,C]2 | [C,G,]3 [C,G,] [C,C]2 [C,C]2 | [C,C]2 [C,C]4 [E,C]2 | [F,C]3 [F,A,] G,2 G,2 | %16
 [C,G,]6 |] %17
V:3
 x2 | x8 | x8 | x8 | x8 | x8 | x8 | x4 G,2 G,2 | x8 | x8 | C2 C4 x2 | x8 | C6 x2 | x8 | x8 | %15
 x4 G,2 G,2 | x6 |] %17

